flaticon/constructions/paint-brush-10.svg

<svg xmlns="http://www.w3.org/2000/svg" width="32" height="32" viewBox="0 0 24 24">
    <path d="M 11.996094 21.601562 C 12.875 21.601562 13.597656 20.878906 13.597656 20 C 13.597656 19.121094 12.875 18.398438 11.996094 18.398438 C 11.117188 18.398438 10.398438 19.121094 10.398438 20 C 10.398438 20.878906 11.117188 21.601562 11.996094 21.601562 Z M 11.996094 19.199219 C 12.4375 19.199219 12.796875 19.558594 12.796875 20 C 12.796875 20.441406 12.4375 20.800781 11.996094 20.800781 C 11.558594 20.800781 11.195312 20.441406 11.195312 20 C 11.195312 19.558594 11.558594 19.199219 11.996094 19.199219 Z M 11.996094 19.199219"/>
    <path d="M 18.277344 0.679688 C 18.398438 0.558594 18.4375 0.398438 18.355469 0.238281 C 18.316406 0.078125 18.15625 0 17.996094 0 L 17.675781 0 C 16.078125 0 14.515625 0.878906 13.796875 2.160156 C 13.757812 2.238281 13.71875 2.28125 13.675781 2.359375 C 13.398438 1.480469 12.996094 0.878906 12.515625 0.441406 C 12.15625 0.160156 11.757812 0 11.316406 0 L 6.597656 0 C 6.238281 0 5.917969 0.199219 5.757812 0.480469 C 5.558594 0.800781 5.558594 1.199219 5.71875 1.519531 C 6.164062 2.300781 6.367188 3.496094 6.394531 5.199219 C 6.15625 5.203125 5.996094 5.359375 5.996094 5.601562 L 5.996094 9.199219 C 5.996094 9.441406 6.15625 9.601562 6.398438 9.601562 L 6.398438 12.800781 C 6.398438 13.921875 7.277344 14.800781 8.398438 14.800781 C 8.515625 14.800781 8.597656 14.839844 8.636719 14.921875 C 8.71875 15 8.757812 15.078125 8.757812 15.199219 L 8.4375 22.761719 C 8.398438 23.078125 8.515625 23.398438 8.757812 23.640625 C 8.996094 23.878906 9.316406 24 9.636719 24 L 14.355469 24 C 14.71875 24 14.996094 23.878906 15.195312 23.640625 C 15.398438 23.398438 15.515625 23.078125 15.515625 22.761719 L 15.195312 15.199219 C 15.195312 15.078125 15.238281 15 15.316406 14.921875 C 15.398438 14.839844 15.476562 14.800781 15.597656 14.800781 C 16.71875 14.800781 17.597656 13.921875 17.597656 12.800781 L 17.597656 9.601562 C 17.835938 9.601562 17.996094 9.398438 17.996094 9.199219 L 17.996094 5.601562 C 17.996094 5.359375 17.835938 5.199219 17.597656 5.199219 L 17.414062 5.199219 C 16.882812 4.007812 17.292969 1.738281 18.277344 0.679688 Z M 17.195312 8.800781 L 6.796875 8.800781 L 6.796875 6 L 17.195312 6 Z M 16.796875 12.800781 C 16.796875 13.480469 16.277344 14 15.597656 14 C 15.277344 14 14.996094 14.121094 14.757812 14.359375 C 14.558594 14.558594 14.4375 14.878906 14.4375 15.199219 L 14.757812 22.800781 C 14.757812 22.878906 14.71875 23 14.636719 23.078125 C 14.558594 23.160156 14.476562 23.199219 14.355469 23.199219 L 9.636719 23.199219 C 9.515625 23.199219 9.4375 23.160156 9.355469 23.078125 C 9.277344 23 9.238281 22.921875 9.238281 22.800781 L 9.558594 15.199219 C 9.597656 14.878906 9.476562 14.601562 9.238281 14.359375 C 8.996094 14.121094 8.71875 14 8.398438 14 C 7.71875 14 7.195312 13.480469 7.195312 12.800781 L 8.398438 12.800781 C 8.636719 12.800781 8.796875 12.601562 8.796875 12.398438 C 8.796875 12.160156 8.636719 12 8.398438 12 L 7.195312 12 L 7.195312 11.199219 L 9.195312 11.199219 C 9.4375 11.199219 9.597656 11.039062 9.597656 10.800781 C 9.597656 10.558594 9.4375 10.398438 9.195312 10.398438 L 7.195312 10.398438 L 7.195312 9.601562 L 16.796875 9.601562 Z M 13.71875 5.199219 L 7.195312 5.199219 C 7.15625 3.359375 6.917969 2.039062 6.4375 1.160156 C 6.398438 1.039062 6.4375 0.960938 6.4375 0.921875 C 6.4375 0.878906 6.515625 0.800781 6.597656 0.800781 L 11.316406 0.800781 C 11.558594 0.800781 11.796875 0.878906 12.035156 1.039062 C 12.597656 1.519531 12.996094 2.398438 13.238281 3.679688 C 13.277344 3.839844 13.398438 4 13.597656 4 C 13.796875 4 13.957031 3.878906 13.957031 3.71875 C 14.035156 3.359375 14.195312 2.960938 14.4375 2.558594 C 14.957031 1.640625 15.996094 1 17.15625 0.839844 C 16.4375 2.078125 16.15625 3.960938 16.558594 5.199219 Z M 13.71875 5.199219"/>
</svg>

<svg xmlns="http://www.w3.org/2000/svg" width="32" height="32" viewBox="0 0 24 24">
    <path d="M11.996 21.602c.879 0 1.602-.723 1.602-1.602 0-.879-.723-1.602-1.602-1.602-.879 0-1.598.723-1.598 1.602 0 .879.72 1.602 1.598 1.602zm0-2.403a.802.802 0 0 1 0 1.602c-.437 0-.8-.36-.8-.801 0-.441.363-.8.8-.8zm0 0"/>
    <path d="M18.277.68c.121-.121.16-.282.078-.442-.039-.16-.199-.238-.359-.238h-.32c-1.598 0-3.16.879-3.88 2.16-.038.078-.077.121-.12.2-.278-.88-.68-1.481-1.16-1.919-.36-.28-.758-.441-1.2-.441H6.598c-.36 0-.68.2-.84.48-.2.32-.2.72-.04 1.04.446.78.65 1.976.677 3.68-.239.003-.399.16-.399.402v3.597c0 .242.16.403.402.403V12.8c0 1.12.88 2 2 2 .118 0 .2.039.239.12a.348.348 0 0 1 .12.278l-.32 7.563c-.039.316.079.636.32.879.24.238.56.359.88.359h4.718c.364 0 .641-.121.84-.36a1.39 1.39 0 0 0 .32-.878l-.32-7.563c0-.12.043-.199.121-.277a.361.361 0 0 1 .282-.121c1.12 0 2-.88 2-2V9.6a.403.403 0 0 0 .398-.402V5.602c0-.243-.16-.403-.398-.403h-.184c-.531-1.191-.121-3.46.863-4.52zM17.195 8.8H6.797V6h10.398zm-.398 4c0 .68-.52 1.2-1.2 1.2-.32 0-.6.121-.84.36-.198.199-.32.519-.32.84l.32 7.6c0 .079-.038.2-.12.278a.356.356 0 0 1-.282.121H9.637c-.121 0-.2-.039-.282-.12a.357.357 0 0 1-.117-.278l.32-7.602c.04-.32-.081-.597-.32-.84a1.16 1.16 0 0 0-.84-.359 1.18 1.18 0 0 1-1.203-1.2h1.203a.4.4 0 0 0 .399-.402c0-.238-.16-.398-.399-.398H7.195v-.8h2c.242 0 .403-.16.403-.4 0-.241-.16-.402-.403-.402h-2v-.796h9.602zm-3.078-7.6H7.195c-.039-1.84-.277-3.16-.758-4.04-.039-.12 0-.2 0-.238 0-.043.079-.121.16-.121h4.72c.242 0 .48.078.718.238.563.48.961 1.36 1.203 2.64.04.16.16.321.36.321.199 0 .359-.121.359-.281a3.9 3.9 0 0 1 .48-1.16c.52-.918 1.56-1.559 2.72-1.72-.72 1.24-1 3.122-.598 4.36zm0 0"/>
</svg>
